FINK
CUT[KOMM DU BLANKER WEIHEDEGEN]
REG[Europa, Mitteleuropa, Deutschland]
KEY[F0469  08 Bb 3/4 4/4]
MEL[  1_3_2-7  1_3_2-7
    1-6-5_-4_  -3_0_
    -5-5  -5_-5_-72  2_1_
    13  32421-7  2_1_0_
    1_3_2-7  1_3_2-7
    1-6-5_-4_  -3_0_
    -5-5  -5_-5_-72  2_1_
    13  32421-7  2_1_0_
    -5-5  1_.2321-7  -7-6-6_0_
    -6-6  2_.34#321  3_2_0_
    -5-5  1_1_2_2_  345_0_
    44  3_421_-7_  155_0_
    33  2_421_-7_  2_1_0_ //] >>
FCT[Studenten -, Burschenschafts - Lied]
